X: 1
T: CATHOLIC BOYS -- JIG
B: Ryan's Mammoth Collection of Fiddle Tunes
R: jig
M: 6/8
L: 1/8
Z: Contributed 20001106221816 by John Chambers John.Chambers:weema.com
K: C
 vc>EE G>EE | c>EE (GAB) |   c>EE GED | EAA A2B \
| c>EE G>EE | cEE   GAB  | {d}cBc AGD | EAA A2z :|
|: uA \
| A2g {a}g^fg | ecc {d}cBc |  eaa aba | edd {e}dcd \
| egg {a}g^fg | ecc    cde | =fed cAG | (EA).A A2 :|
